src/icons/outline/communication/wrap-up.svg

<svg width="24" height="24" viewBox="0 0 24 24" fill="none" xmlns="http://www.w3.org/2000/svg">
<g clip-path="url(#clip0_4601_631)">
<path d="M1.70215 5C2.08991 5.00001 2.4043 5.31438 2.4043 5.70215V18.8086C2.40425 19.1963 2.08989 19.5107 1.70215 19.5107C1.3144 19.5107 1.00004 19.1963 1 18.8086V5.70215C1 5.31437 1.31437 5 1.70215 5Z" fill="#3C3B44"/>
<path d="M22.2979 5C22.6856 5 23 5.31437 23 5.70215V18.8086C23 19.1963 22.6856 19.5107 22.2979 19.5107C21.9101 19.5107 21.5957 19.1963 21.5957 18.8086V5.70215C21.5957 5.31438 21.9101 5.00001 22.2979 5Z" fill="#3C3B44"/>
<path d="M14.5273 5.93652C17.2554 5.93652 19.4421 8.12261 19.4424 10.8506C19.4424 13.5744 17.263 15.7586 14.541 15.7656L10.4336 15.916L12.4844 17.2891C12.8064 17.5047 12.8931 17.9405 12.6777 18.2627C12.462 18.5849 12.0253 18.6717 11.7031 18.4561L7.85156 15.876C7.665 15.751 7.54883 15.5447 7.54004 15.3203C7.53132 15.0959 7.63125 14.8803 7.80762 14.7412L11.6592 11.7041C11.9637 11.464 12.4054 11.5158 12.6455 11.8203C12.8856 12.1248 12.8328 12.5665 12.5283 12.8066L10.3652 14.5127L14.502 14.3623C14.5103 14.362 14.519 14.3613 14.5273 14.3613C16.48 14.3613 18.0381 12.8032 18.0381 10.8506C18.0378 8.95927 16.5763 7.43809 14.71 7.34473L14.5273 7.34082H5.16602C4.77842 7.34075 4.46407 7.02623 4.46387 6.63867C4.46387 6.25094 4.7783 5.93659 5.16602 5.93652H14.5273Z" fill="#3C3B44"/>
</g>
<defs>
<clipPath id="clip0_4601_631">
<rect width="24" height="24" fill="white"/>
</clipPath>
</defs>
</svg>

<svg xmlns="http://www.w3.org/2000/svg" width="24" height="24" fill="none" viewBox="0 0 24 24"><g fill="currentColor" clip-path="url(#a)"><path d="M1.702 5c.388 0 .702.314.702.702V18.81a.702.702 0 0 1-1.404 0V5.702C1 5.314 1.314 5 1.702 5m20.596 0c.388 0 .702.314.702.702V18.81a.702.702 0 0 1-1.404 0V5.702c0-.388.314-.702.702-.702m-7.771.937a4.897 4.897 0 0 1 4.915 4.914 4.897 4.897 0 0 1-4.901 4.915l-4.107.15 2.05 1.373a.702.702 0 1 1-.78 1.167l-3.852-2.58a.702.702 0 0 1-.044-1.135l3.851-3.037a.702.702 0 1 1 .87 1.103l-2.164 1.706 4.137-.15.025-.002a3.493 3.493 0 0 0 3.511-3.51 3.49 3.49 0 0 0-3.328-3.506l-.183-.004H5.166a.703.703 0 0 1 0-1.404z"/></g><defs><clipPath id="a"><path fill="currentColor" d="M0 0h24v24H0z"/></clipPath></defs></svg>
